picto/emergency-window-left.svg

<svg class="color-immutable" width="24" height="24" viewBox="0 0 24 24" fill="none" xmlns="http://www.w3.org/2000/svg"><path d="M0 22.5V1.5C0 0.675 0.675 0 1.5 0H22.5C23.325 0 24 0.675 24 1.5V22.5C24 23.325 23.325 24 22.5 24H1.5C0.675 24 0 23.325 0 22.5Z" fill="#237F52"/><path d="M6.44999 7.35C6.44999 8.095 5.84499 8.7 5.10099 8.7C4.35499 8.7 3.74999 8.095 3.74999 7.35C3.74999 6.604 4.35499 6 5.10099 6C5.84499 6 6.44999 6.604 6.44999 7.35ZM12.57 15L11.053 13.483L8.44599 16.09V19.899C8.44599 20.281 8.13499 20.592 7.75299 20.592C7.37099 20.592 7.06099 20.281 7.06099 19.899V15.706C7.06099 15.521 7.13299 15.346 7.26299 15.215L9.33799 13.14L7.06099 10.861V12.8C7.06099 13.088 6.82799 13.32 6.54099 13.32H4.08299C3.79499 13.32 3.56299 13.088 3.56299 12.8C3.56299 12.512 3.79499 12.281 4.08299 12.281H6.05599V9.857C6.05599 8.902 6.83099 8.125 7.78899 8.125H10.209C10.393 8.125 10.57 8.199 10.699 8.329L12.742 10.372C12.833 10.462 12.884 10.585 12.884 10.715C12.884 10.982 12.667 11.199 12.399 11.199C12.27 11.199 12.147 11.149 12.055 11.058L10.128 9.13H8.75699L14.628 15H12.57Z" fill="white"/><path d="M7.5 14.447L8.625 13.323V12.956L7.5 11.831V14.447Z" fill="white"/><path d="M7.5 3V7.77C7.594 7.757 7.691 7.75 7.789 7.75H8.625V4.125H19.875V15.375H9.691L8.82 16.245V16.5H21V3H7.5Z" fill="white"/></svg>

<svg class="color-immutable" width="24" height="24" viewBox="0 0 24 24" fill="none" xmlns="http://www.w3.org/2000/svg"><g clip-path="url(#a)"><path d="M0 22.5v-21C0 .675.675 0 1.5 0h21c.825 0 1.5.675 1.5 1.5v21c0 .825-.675 1.5-1.5 1.5h-21C.675 24 0 23.325 0 22.5Z" fill="#237F52"/><path d="M6.45 7.35a1.35 1.35 0 1 1-2.701-.001 1.35 1.35 0 0 1 2.701.001ZM12.57 15l-1.517-1.517-2.607 2.607v3.809a.693.693 0 0 1-1.385 0v-4.193c0-.185.072-.36.202-.491l2.075-2.075-2.277-2.279V12.8a.52.52 0 0 1-.52.52H4.083a.519.519 0 1 1 0-1.039h1.973V9.857c0-.955.775-1.732 1.733-1.732h2.42c.184 0 .361.074.49.204l2.043 2.043a.485.485 0 1 1-.687.686L10.128 9.13H8.757L14.628 15H12.57Z" fill="#fff"/><path d="m7.5 14.447 1.125-1.124v-.367L7.5 11.831v2.616Z" fill="#fff"/><path d="M7.5 3v4.77c.094-.013.191-.02.289-.02h.836V4.125h11.25v11.25H9.691l-.871.87v.255H21V3H7.5Z" fill="#fff"/></g><defs><clipPath id="a"><path fill="#fff" d="M0 0h24v24H0z"/></clipPath></defs></svg>
